src/assets/filled/SecurityCard.svg

<svg width="24" height="24" viewBox="0 0 24 24"  xmlns="http://www.w3.org/2000/svg">
<path d="M13.49 13.38H11C10.7 13.38 10.46 13.62 10.46 13.92C10.46 14.22 10.7 14.46 11 14.46H13.49C13.79 14.46 14.03 14.22 14.03 13.92C14.03 13.62 13.79 13.38 13.49 13.38Z" />
<path d="M9.4399 13.38H8.1899C7.8899 13.38 7.6499 13.62 7.6499 13.92C7.6499 14.22 7.8899 14.46 8.1899 14.46H9.4399C9.7399 14.46 9.9799 14.22 9.9799 13.92C9.9799 13.62 9.7399 13.38 9.4399 13.38Z" />
<path d="M18.54 4.22L13.04 2.16C12.47 1.95 11.54 1.95 10.97 2.16L5.47005 4.22C4.41005 4.62 3.55005 5.86 3.55005 6.99V15.09C3.55005 15.9 4.08005 16.97 4.73005 17.45L10.23 21.56C11.2 22.29 12.79 22.29 13.76 21.56L19.26 17.45C19.91 16.96 20.4401 15.9 20.4401 15.09V6.99C20.4501 5.86 19.59 4.62 18.54 4.22ZM18.17 13.65C18.15 15.72 17.58 16.24 15.43 16.24H8.58005C6.39005 16.24 5.84005 15.7 5.84005 13.53V11.2C5.84005 10.92 6.06005 10.7 6.34005 10.7H17.67C17.95 10.7 18.17 10.92 18.17 11.2V13.65ZM18.17 9.11C18.17 9.39 17.95 9.61 17.67 9.61H6.34005C6.06005 9.61 5.84005 9.39 5.84005 9.11V8.47C5.84005 6.51 6.30005 5.88 8.01005 5.77C8.19005 5.77 8.38005 5.76 8.58005 5.76H15.43C17.62 5.76 18.17 6.3 18.17 8.47V9.11Z" />
</svg>

<?xml version="1.0" encoding="UTF-8"?>
<svg width="24" height="24" viewBox="0 0 24 24" xmlns="http://www.w3.org/2000/svg">
 <path d="m13.49 13.38h-2.49c-0.3 0-0.54 0.24-0.54 0.54s0.24 0.54 0.54 0.54h2.49c0.3 0 0.54-0.24 0.54-0.54s-0.24-0.54-0.54-0.54z"/>
 <path d="m9.4399 13.38h-1.25c-0.3 0-0.54 0.24-0.54 0.54s0.24 0.54 0.54 0.54h1.25c0.3 0 0.54-0.24 0.54-0.54s-0.24-0.54-0.54-0.54z"/>
 <path d="m18.54 4.22-5.5-2.06c-0.57-0.21-1.5-0.21-2.07 0l-5.5 2.06c-1.06 0.4-1.92 1.64-1.92 2.77v8.1c0 0.81 0.53 1.88 1.18 2.36l5.5 4.11c0.97 0.73 2.56 0.73 3.53 0l5.5-4.11c0.65-0.49 1.1801-1.55 1.1801-2.36v-8.1c0.01-1.13-0.8501-2.37-1.9001-2.77zm-0.37 9.43c-0.02 2.07-0.59 2.59-2.74 2.59h-6.85c-2.19 0-2.74-0.54-2.74-2.71v-2.33c0-0.28 0.22-0.5 0.5-0.5h11.33c0.28 0 0.5 0.22 0.5 0.5v2.45zm0-4.54c0 0.28-0.22 0.5-0.5 0.5h-11.33c-0.28 0-0.5-0.22-0.5-0.5v-0.64c0-1.96 0.46-2.59 2.17-2.7 0.18 0 0.37-0.01 0.57-0.01h6.85c2.19 0 2.74 0.54 2.74 2.71v0.64z"/>
</svg>
